resources/adobe/SmartStudio-Natural-v1.xmp
<?xpacket begin="﻿" id="W5M0MpCehiHzreSzNTczkc9d"?>
<x:xmpmeta xmlns:x="adobe:ns:meta/" x:xmptk="SmartStudio">
  <rdf:RDF xmlns:rdf="http://www.w3.org/1999/02/22-rdf-syntax-ns#">
    <rdf:Description rdf:about=""
      xmlns:crs="http://ns.adobe.com/camera-raw-settings/1.0/"
      crs:PresetType="Normal"
      crs:Cluster="SmartStudio"
      crs:UUID="2C42D6A9A8674BF89DD8840940B90691"
      crs:SupportsAmount="True"
      crs:SupportsColor="True"
      crs:SupportsMonochrome="True"
      crs:Version="16.0"
      crs:ProcessVersion="15.4"
      crs:Name="SmartStudio Natural Adobe v1"
      crs:Profile="Adobe Color"
      crs:Contrast2012="4"
      crs:Highlights2012="-8"
      crs:Shadows2012="8"
      crs:Whites2012="2"
      crs:Blacks2012="-2"
      crs:Texture="-3"
      crs:Clarity2012="2"
      crs:Vibrance="4"
      crs:Saturation="0"
      crs:SharpenRadius="1.0"
      crs:SharpenDetail="20"
      crs:SharpenEdgeMasking="20"
      crs:ColorNoiseReduction="20"
      crs:LensProfileEnable="1"
      crs:RemoveChromaticAberration="True" />
  </rdf:RDF>
</x:xmpmeta>
<?xpacket end="w"?>
